Newaita-dark/apps/48/com.github.harisvsulaiman.pushy.svg

<svg height="48pt" viewBox="0 0 48 48" width="48pt" xmlns="http://www.w3.org/2000/svg" xmlns:xlink="http://www.w3.org/1999/xlink"><linearGradient id="a"><stop offset="0" stop-opacity=".313725"/><stop offset=".222222" stop-opacity=".27451"/><stop offset="1" stop-opacity="0"/></linearGradient><radialGradient id="b" cx="450.90894" cy="189.57936" gradientTransform="matrix(.00000026 -.117199 -.210958 -.00000015 66.784728 95.392998)" gradientUnits="userSpaceOnUse" r="21.166656" xlink:href="#a"/><radialGradient id="c" cx="450.90894" cy="189.57936" gradientTransform="matrix(-.00000026 .117199 .210958 .00000015 -19.155181 -11.291222)" gradientUnits="userSpaceOnUse" r="21.166656" xlink:href="#a"/><radialGradient id="d" cx="450.90894" cy="189.57936" gradientTransform="matrix(-.00000026 -.117199 .210958 -.00000015 -19.155181 95.392998)" gradientUnits="userSpaceOnUse" r="21.166656" xlink:href="#a"/><radialGradient id="e" cx="450.90894" cy="189.57936" gradientTransform="matrix(.00000026 .117199 -.210958 .00000015 66.784725 -11.291223)" gradientUnits="userSpaceOnUse" r="21.166656" xlink:href="#a"/><linearGradient id="f" gradientTransform="matrix(.0200401 0 0 .093759 18.698079 20.158175)" gradientUnits="userSpaceOnUse" x1="255.32306" x2="255.32304" y1="233.5" y2="254.66666"><stop offset="0" stop-opacity=".27451"/><stop offset="1" stop-opacity="0"/></linearGradient><linearGradient id="g"><stop offset="0" stop-color="#81c784"/><stop offset="1" stop-color="#66bb6a"/></linearGradient><linearGradient id="h" gradientUnits="userSpaceOnUse" x1="254" x2="254" xlink:href="#g" y1="-168.66667" y2="233.5"/><linearGradient id="i" gradientUnits="userSpaceOnUse" x1="23.814775" x2="23.814775" xlink:href="#g" y1="12.2824221524" y2="34.11263225"/><radialGradient id="j" cx="23.814786" cy="23.1975282499" gradientUnits="userSpaceOnUse" r="10.91510962494"><stop offset="0" stop-color="#fff" stop-opacity=".196078"/><stop offset="1" stop-color="#cbcbcb" stop-opacity="0"/></radialGradient><path d="m27.289062 42.050781h3.96875v-1.984375h-3.96875zm0 0" fill="url(#b)"/><path d="m20.339844 42.050781h-3.96875v1.984375h3.96875zm0 0" fill="url(#c)"/><path d="m20.339844 42.050781h-3.96875v-1.984375h3.96875zm0 0" fill="url(#d)"/><path d="m27.289062 42.050781h3.96875v1.984375h-3.96875zm0 0" fill="url(#e)"/><path d="m20.339844 41.554688h6.949218v2.480468h-6.949218zm0 0" fill="url(#f)"/><path d="m254.017409-168.671091c111.031064 0 201.064133 90.033069 201.064133 201.105795 0 111.031064-90.033069 201.064133-201.064133 201.064133-111.072726 0-201.105795-90.033069-201.105795-201.064133 0-111.072726 90.033069-201.105795 201.105795-201.105795zm0 0" fill="url(#h)" stroke="#333" stroke-linecap="round" stroke-width="3" transform="matrix(.093759 0 0 .093759 0 20.158175)"/><path d="m23.816406 42.050781c-10.445312 0-18.855468-8.410156-18.855468-18.851562 0-.0625 0-.125 0-.1875.101562 10.359375 8.472656 18.667969 18.855468 18.667969 10.382813 0 18.753906-8.308594 18.851563-18.667969v.1875c0 10.441406-8.410157 18.851562-18.851563 18.851562zm0 0" fill-opacity=".196078"/><path d="m23.816406 4.34375c-10.445312 0-18.855468 8.410156-18.855468 18.855469v.183593c.101562-10.359374 8.472656-18.667968 18.855468-18.667968 10.382813 0 18.753906 8.308594 18.851563 18.667968 0-.0625 0-.125 0-.183593 0-10.445313-8.410157-18.855469-18.851563-18.855469zm0 0" fill="#fff" fill-opacity=".392157"/><path d="m23.816406 4.203125c-10.523437 0-18.996094 8.472656-18.996094 18.996094 0 10.519531 8.472657 18.992187 18.996094 18.992187 10.519532 0 18.992188-8.472656 18.992188-18.992187 0-10.523438-8.472656-18.996094-18.992188-18.996094zm0 .28125c10.367188 0 18.710938 8.34375 18.710938 18.714844 0 10.367187-8.34375 18.710937-18.710938 18.710937-10.371094 0-18.714844-8.34375-18.714844-18.710937 0-10.371094 8.34375-18.714844 18.714844-18.714844zm0 0" fill="#212121"/><path d="m23.816406 7.320312c8.765625 0 15.875 7.109376 15.875 15.878907 0 8.765625-7.109375 15.875-15.875 15.875-8.769531 0-15.878906-7.109375-15.878906-15.875 0-8.769531 7.109375-15.878907 15.878906-15.878907zm0 0" fill="#e0e0e0"/><path d="m23.816406 12.28125c6.027344 0 10.914063 4.886719 10.914063 10.917969 0 6.027343-4.886719 10.914062-10.914063 10.914062-6.03125 0-10.917968-4.886719-10.917968-10.914062 0-6.03125 4.886718-10.917969 10.917968-10.917969zm0 0" fill="url(#i)"/><path d="m23.816406 12.40625c-5.367187 0-9.804687 3.835938-10.738281 8.921875 1.058594-4.921875 5.421875-8.59375 10.671875-8.59375 6.046875 0 10.914062 4.867187 10.914062 10.917969 0 .679687-.0625 1.34375-.179687 1.988281.160156-.746094.246094-1.523437.246094-2.320313 0-6.046874-4.867188-10.914062-10.914063-10.914062zm0 0" fill="#fff" fill-opacity=".392157"/><path d="m12.910156 23.695312c-.007812.164063-.011718.328126-.011718.496094 0 6.046875 4.871093 10.914063 10.917968 10.914063s10.914063-4.867188 10.914063-10.914063c0-.167968-.003907-.332031-.011719-.496094-.257812 5.8125-5.023438 10.417969-10.902344 10.417969-5.882812 0-10.648437-4.605469-10.90625-10.417969zm0 0" fill-opacity=".235294"/><path d="m254.017409-84.012509c64.285528 0 116.405551 52.120023 116.405551 116.447213 0 64.285528-52.120023 116.405551-116.405551 116.405551-64.32719 0-116.447213-52.120023-116.447213-116.405551 0-64.32719 52.120023-116.447213 116.447213-116.447213zm0 0" fill="none" stroke="#212121" stroke-linecap="round" stroke-width="3" transform="matrix(.093759 0 0 .093759 0 20.158175)"/><path d="m23.816406 12.28125c6.027344 0 10.914063 4.886719 10.914063 10.917969 0 6.027343-4.886719 10.914062-10.914063 10.914062-6.03125 0-10.917968-4.886719-10.917968-10.914062 0-6.03125 4.886718-10.917969 10.917968-10.917969zm0 0" fill="url(#j)"/><path d="m23.816406 7.320312c-8.796875 0-15.878906 7.082032-15.878906 15.878907 0 .082031 0 .164062.003906.246093.128906-8.679687 7.160156-15.628906 15.875-15.628906 8.710938 0 15.742188 6.949219 15.871094 15.628906.003906-.082031.003906-.164062.003906-.246093 0-8.796875-7.082031-15.878907-15.875-15.878907zm0 0" fill="#fff" fill-opacity=".992157"/><path d="m7.941406 23.589844c0 .101562-.003906.203125-.003906.304687 0 8.796875 7.082031 15.878907 15.878906 15.878907 8.792969 0 15.875-7.082032 15.875-15.878907 0-.101562 0-.203125-.003906-.304687-.167969 8.648437-7.183594 15.5625-15.871094 15.5625-8.691406 0-15.707031-6.914063-15.875-15.5625zm0 0" fill-opacity=".235294"/><path d="m254.017409-136.924123c93.491072 0 169.317165 75.826093 169.317165 169.358827 0 93.491073-75.826093 169.317165-169.317165 169.317165-93.532735 0-169.358827-75.826092-169.358827-169.317165 0-93.532734 75.826092-169.358827 169.358827-169.358827zm0 0" fill="none" stroke="#212121" stroke-linecap="round" stroke-width="3" transform="matrix(.093759 0 0 .093759 0 20.158175)"/></svg>

<?xml version="1.0" encoding="UTF-8"?>
<svg xmlns="http://www.w3.org/2000/svg" xmlns:xlink="http://www.w3.org/1999/xlink" width="48pt" height="48pt" viewBox="0 0 48 48" version="1.1">
<defs>
<radialGradient id="radial0" gradientUnits="userSpaceOnUse" cx="450.90894" cy="189.57936" fx="450.90894" fy="189.57936" r="21.166656" gradientTransform="matrix(0.000000261256,-0.117199,-0.210958,-0.000000152308,66.784728,95.392998)">
<stop offset="0" style="stop-color:rgb(0%,0%,0%);stop-opacity:0.313725;"/>
<stop offset="0.222222" style="stop-color:rgb(0%,0%,0%);stop-opacity:0.27451;"/>
<stop offset="1" style="stop-color:rgb(0%,0%,0%);stop-opacity:0;"/>
</radialGradient>
<radialGradient id="radial1" gradientUnits="userSpaceOnUse" cx="450.90894" cy="189.57936" fx="450.90894" fy="189.57936" r="21.166656" gradientTransform="matrix(-0.000000261256,0.117199,0.210958,0.000000152308,-19.155181,-11.291222)">
<stop offset="0" style="stop-color:rgb(0%,0%,0%);stop-opacity:0.313725;"/>
<stop offset="0.222222" style="stop-color:rgb(0%,0%,0%);stop-opacity:0.27451;"/>
<stop offset="1" style="stop-color:rgb(0%,0%,0%);stop-opacity:0;"/>
</radialGradient>
<radialGradient id="radial2" gradientUnits="userSpaceOnUse" cx="450.90894" cy="189.57936" fx="450.90894" fy="189.57936" r="21.166656" gradientTransform="matrix(-0.000000261256,-0.117199,0.210958,-0.000000152308,-19.155181,95.392998)">
<stop offset="0" style="stop-color:rgb(0%,0%,0%);stop-opacity:0.313725;"/>
<stop offset="0.222222" style="stop-color:rgb(0%,0%,0%);stop-opacity:0.27451;"/>
<stop offset="1" style="stop-color:rgb(0%,0%,0%);stop-opacity:0;"/>
</radialGradient>
<radialGradient id="radial3" gradientUnits="userSpaceOnUse" cx="450.90894" cy="189.57936" fx="450.90894" fy="189.57936" r="21.166656" gradientTransform="matrix(0.000000261256,0.117199,-0.210958,0.000000152308,66.784725,-11.291223)">
<stop offset="0" style="stop-color:rgb(0%,0%,0%);stop-opacity:0.313725;"/>
<stop offset="0.222222" style="stop-color:rgb(0%,0%,0%);stop-opacity:0.27451;"/>
<stop offset="1" style="stop-color:rgb(0%,0%,0%);stop-opacity:0;"/>
</radialGradient>
<linearGradient id="linear0" gradientUnits="userSpaceOnUse" x1="255.32306" y1="233.5" x2="255.32304" y2="254.66666" gradientTransform="matrix(0.0200401,0,0,0.093759,18.698079,20.158175)">
<stop offset="0" style="stop-color:rgb(0%,0%,0%);stop-opacity:0.27451;"/>
<stop offset="1" style="stop-color:rgb(0%,0%,0%);stop-opacity:0;"/>
</linearGradient>
<linearGradient id="linear1" gradientUnits="userSpaceOnUse" x1="254" y1="-168.66667" x2="254" y2="233.5" gradientTransform="matrix(1,0,0,1,0,0)">
<stop offset="0" style="stop-color:rgb(50.588235%,78.039216%,51.764706%);stop-opacity:1;"/>
<stop offset="1" style="stop-color:rgb(40%,73.333333%,41.568627%);stop-opacity:1;"/>
</linearGradient>
<linearGradient id="linear2" gradientUnits="userSpaceOnUse" x1="254" y1="-168.66667" x2="254" y2="233.5" gradientTransform="matrix(0.0542815,0,0,0.0542815,10.027274,21.437902)">
<stop offset="0" style="stop-color:rgb(50.588235%,78.039216%,51.764706%);stop-opacity:1;"/>
<stop offset="1" style="stop-color:rgb(40%,73.333333%,41.568627%);stop-opacity:1;"/>
</linearGradient>
<radialGradient id="radial4" gradientUnits="userSpaceOnUse" cx="254" cy="32.416656" fx="254" fy="32.416656" r="116.41666" gradientTransform="matrix(0.093759,0,0,0.093759,0,20.158175)">
<stop offset="0" style="stop-color:rgb(100%,100%,100%);stop-opacity:0.196078;"/>
<stop offset="1" style="stop-color:rgb(79.607843%,79.607843%,79.607843%);stop-opacity:0;"/>
</radialGradient>
</defs>
<g id="surface1">
<path style=" stroke:none;fill-rule:nonzero;fill:url(#radial0);" d="M 27.289062 42.050781 L 31.257812 42.050781 L 31.257812 40.066406 L 27.289062 40.066406 Z M 27.289062 42.050781 "/>
<path style=" stroke:none;fill-rule:nonzero;fill:url(#radial1);" d="M 20.339844 42.050781 L 16.371094 42.050781 L 16.371094 44.035156 L 20.339844 44.035156 Z M 20.339844 42.050781 "/>
<path style=" stroke:none;fill-rule:nonzero;fill:url(#radial2);" d="M 20.339844 42.050781 L 16.371094 42.050781 L 16.371094 40.066406 L 20.339844 40.066406 Z M 20.339844 42.050781 "/>
<path style=" stroke:none;fill-rule:nonzero;fill:url(#radial3);" d="M 27.289062 42.050781 L 31.257812 42.050781 L 31.257812 44.035156 L 27.289062 44.035156 Z M 27.289062 42.050781 "/>
<path style=" stroke:none;fill-rule:nonzero;fill:url(#linear0);" d="M 20.339844 41.554688 L 27.289062 41.554688 L 27.289062 44.035156 L 20.339844 44.035156 Z M 20.339844 41.554688 "/>
<path style="fill-rule:nonzero;fill:url(#linear1);stroke-width:3;stroke-linecap:round;stroke-linejoin:miter;stroke:rgb(20%,20%,20%);stroke-opacity:1;stroke-miterlimit:4;" d="M 254.017409 -168.671091 C 365.048473 -168.671091 455.081542 -78.638022 455.081542 32.434704 C 455.081542 143.465768 365.048473 233.498837 254.017409 233.498837 C 142.944683 233.498837 52.911614 143.465768 52.911614 32.434704 C 52.911614 -78.638022 142.944683 -168.671091 254.017409 -168.671091 Z M 254.017409 -168.671091 " transform="matrix(0.093759,0,0,0.093759,0,20.158175)"/>
<path style=" stroke:none;fill-rule:nonzero;fill:rgb(0%,0%,0%);fill-opacity:0.196078;" d="M 23.816406 42.050781 C 13.371094 42.050781 4.960938 33.640625 4.960938 23.199219 C 4.960938 23.136719 4.960938 23.074219 4.960938 23.011719 C 5.0625 33.371094 13.433594 41.679688 23.816406 41.679688 C 34.199219 41.679688 42.570312 33.371094 42.667969 23.011719 C 42.667969 23.074219 42.667969 23.136719 42.667969 23.199219 C 42.667969 33.640625 34.257812 42.050781 23.816406 42.050781 Z M 23.816406 42.050781 "/>
<path style=" stroke:none;fill-rule:nonzero;fill:rgb(100%,100%,100%);fill-opacity:0.392157;" d="M 23.816406 4.34375 C 13.371094 4.34375 4.960938 12.753906 4.960938 23.199219 C 4.960938 23.257812 4.960938 23.320312 4.960938 23.382812 C 5.0625 13.023438 13.433594 4.714844 23.816406 4.714844 C 34.199219 4.714844 42.570312 13.023438 42.667969 23.382812 C 42.667969 23.320312 42.667969 23.257812 42.667969 23.199219 C 42.667969 12.753906 34.257812 4.34375 23.816406 4.34375 Z M 23.816406 4.34375 "/>
<path style=" stroke:none;fill-rule:nonzero;fill:rgb(12.941176%,12.941176%,12.941176%);fill-opacity:1;" d="M 23.816406 4.203125 C 13.292969 4.203125 4.820312 12.675781 4.820312 23.199219 C 4.820312 33.71875 13.292969 42.191406 23.816406 42.191406 C 34.335938 42.191406 42.808594 33.71875 42.808594 23.199219 C 42.808594 12.675781 34.335938 4.203125 23.816406 4.203125 Z M 23.816406 4.484375 C 34.183594 4.484375 42.527344 12.828125 42.527344 23.199219 C 42.527344 33.566406 34.183594 41.910156 23.816406 41.910156 C 13.445312 41.910156 5.101562 33.566406 5.101562 23.199219 C 5.101562 12.828125 13.445312 4.484375 23.816406 4.484375 Z M 23.816406 4.484375 "/>
<path style=" stroke:none;fill-rule:nonzero;fill:rgb(87.843137%,87.843137%,87.843137%);fill-opacity:1;" d="M 23.816406 7.320312 C 32.582031 7.320312 39.691406 14.429688 39.691406 23.199219 C 39.691406 31.964844 32.582031 39.074219 23.816406 39.074219 C 15.046875 39.074219 7.9375 31.964844 7.9375 23.199219 C 7.9375 14.429688 15.046875 7.320312 23.816406 7.320312 Z M 23.816406 7.320312 "/>
<path style=" stroke:none;fill-rule:nonzero;fill:url(#linear2);" d="M 23.816406 12.28125 C 29.84375 12.28125 34.730469 17.167969 34.730469 23.199219 C 34.730469 29.226562 29.84375 34.113281 23.816406 34.113281 C 17.785156 34.113281 12.898438 29.226562 12.898438 23.199219 C 12.898438 17.167969 17.785156 12.28125 23.816406 12.28125 Z M 23.816406 12.28125 "/>
<path style=" stroke:none;fill-rule:nonzero;fill:rgb(100%,100%,100%);fill-opacity:0.392157;" d="M 23.816406 12.40625 C 18.449219 12.40625 14.011719 16.242188 13.078125 21.328125 C 14.136719 16.40625 18.5 12.734375 23.75 12.734375 C 29.796875 12.734375 34.664062 17.601562 34.664062 23.652344 C 34.664062 24.332031 34.601562 24.996094 34.484375 25.640625 C 34.644531 24.894531 34.730469 24.117188 34.730469 23.320312 C 34.730469 17.273438 29.863281 12.40625 23.816406 12.40625 Z M 23.816406 12.40625 "/>
<path style=" stroke:none;fill-rule:nonzero;fill:rgb(0%,0%,0%);fill-opacity:0.235294;" d="M 12.910156 23.695312 C 12.902344 23.859375 12.898438 24.023438 12.898438 24.191406 C 12.898438 30.238281 17.769531 35.105469 23.816406 35.105469 C 29.863281 35.105469 34.730469 30.238281 34.730469 24.191406 C 34.730469 24.023438 34.726562 23.859375 34.71875 23.695312 C 34.460938 29.507812 29.695312 34.113281 23.816406 34.113281 C 17.933594 34.113281 13.167969 29.507812 12.910156 23.695312 Z M 12.910156 23.695312 "/>
<path style="fill:none;stroke-width:3;stroke-linecap:round;stroke-linejoin:miter;stroke:rgb(12.941176%,12.941176%,12.941176%);stroke-opacity:1;stroke-miterlimit:4;" d="M 254.017409 -84.012509 C 318.302937 -84.012509 370.42296 -31.892486 370.42296 32.434704 C 370.42296 96.720232 318.302937 148.840255 254.017409 148.840255 C 189.690219 148.840255 137.570196 96.720232 137.570196 32.434704 C 137.570196 -31.892486 189.690219 -84.012509 254.017409 -84.012509 Z M 254.017409 -84.012509 " transform="matrix(0.093759,0,0,0.093759,0,20.158175)"/>
<path style=" stroke:none;fill-rule:nonzero;fill:url(#radial4);" d="M 23.816406 12.28125 C 29.84375 12.28125 34.730469 17.167969 34.730469 23.199219 C 34.730469 29.226562 29.84375 34.113281 23.816406 34.113281 C 17.785156 34.113281 12.898438 29.226562 12.898438 23.199219 C 12.898438 17.167969 17.785156 12.28125 23.816406 12.28125 Z M 23.816406 12.28125 "/>
<path style=" stroke:none;fill-rule:nonzero;fill:rgb(100%,100%,100%);fill-opacity:0.992157;" d="M 23.816406 7.320312 C 15.019531 7.320312 7.9375 14.402344 7.9375 23.199219 C 7.9375 23.28125 7.9375 23.363281 7.941406 23.445312 C 8.070312 14.765625 15.101562 7.816406 23.816406 7.816406 C 32.527344 7.816406 39.558594 14.765625 39.6875 23.445312 C 39.691406 23.363281 39.691406 23.28125 39.691406 23.199219 C 39.691406 14.402344 32.609375 7.320312 23.816406 7.320312 Z M 23.816406 7.320312 "/>
<path style=" stroke:none;fill-rule:nonzero;fill:rgb(0%,0%,0%);fill-opacity:0.235294;" d="M 7.941406 23.589844 C 7.941406 23.691406 7.9375 23.792969 7.9375 23.894531 C 7.9375 32.691406 15.019531 39.773438 23.816406 39.773438 C 32.609375 39.773438 39.691406 32.691406 39.691406 23.894531 C 39.691406 23.792969 39.691406 23.691406 39.6875 23.589844 C 39.519531 32.238281 32.503906 39.152344 23.816406 39.152344 C 15.125 39.152344 8.109375 32.238281 7.941406 23.589844 Z M 7.941406 23.589844 "/>
<path style="fill:none;stroke-width:3;stroke-linecap:round;stroke-linejoin:miter;stroke:rgb(12.941176%,12.941176%,12.941176%);stroke-opacity:1;stroke-miterlimit:4;" d="M 254.017409 -136.924123 C 347.508481 -136.924123 423.334574 -61.09803 423.334574 32.434704 C 423.334574 125.925777 347.508481 201.751869 254.017409 201.751869 C 160.484674 201.751869 84.658582 125.925777 84.658582 32.434704 C 84.658582 -61.09803 160.484674 -136.924123 254.017409 -136.924123 Z M 254.017409 -136.924123 " transform="matrix(0.093759,0,0,0.093759,0,20.158175)"/>
</g>
</svg>
